X: 5
T: The Jig Of Slurs
R: jig
M: 6/8
L: 1/8
K: Dmaj
|: B | A2 d dcd | Bdd Add | Bdd Add | Bee edB |
A2 d dcd | Bdd Add | Bdd cde | fdd d2 :|
|: B | A2 f fef | aff f2 d | B2 e ede | fed edB |
A2 f fef | aff f2 d | Bdd cde | fdd d2 :|
K:Gmaj
z |: G2 g gfg | agf g2 g | G2 g gfg | agf g2 g|
G2 g gfg | agf g2 g | e2 e e2 g | fed e2 d :|
|: GBB Bdd | dee efg | GBB Bdd | dee efg |
GBB Bdd | dee efg | e2 e e2 g | [1 fed e2 d :| [2 fed e2 |]


Tune 35	Setting 29819

